build/img/decor/decor1.svg

<svg width="76" height="99" viewBox="0 0 76 99" fill="none" xmlns="http://www.w3.org/2000/svg">
<path d="M20.4127 97.1121L25.1768 93.5328C14.809 65.8809 33.266 40.8219 33.911 40.0264C45.0466 48.8211 56.2483 54.4365 60.4573 56.1448C60.9809 55.2333 62.0944 53.2775 62.3589 52.7471C51.2217 48.7828 43.3108 43.7417 37.9485 40.3091C44.6471 42.0744 59.4264 42.0657 65.9788 41.8407L66.3745 37.8128C46.6351 39.4823 42.6635 38.3211 38.2289 37.9222C38.3877 37.8029 48.2056 35.5044 65.0961 25.6123C64.6765 24.5458 63.8043 22.3133 63.6718 21.9154C46.3681 33.0506 42.1656 33.9282 37.4009 35.8499C43.7529 30.663 55.6105 12.9457 56.4042 11.5203C55.047 10.2602 53.8057 9.43109 53.1934 9.16573C47.8362 20.2375 37.0524 32.8993 35.878 34.0925C40.8691 17.2852 41.4112 5.99686 41.4934 4.58789C40.5668 4.45507 38.6473 4.23912 37.5221 4.25543C38.1339 12.252 35.1695 27.0253 33.6109 33.4123C31.3226 19.5871 27.5136 10.2206 25.8077 5.59535C25.2782 5.66153 23.0834 6.60587 22.0522 7.06976C28.6592 21.2773 30.7139 29.682 31.3607 33.8593C23.0669 22.37 14.1786 14.2289 12.5235 12.9853C12.132 13.383 11.0415 14.5133 9.81089 15.8523C17.5168 21.1718 26.1972 30.9683 29.5742 35.2016C17.5754 27.7394 6.1576 25.7476 4.07263 25.4487C3.83576 26.283 3.30584 28.1803 3.08113 29.0953C13.5651 29.5088 26.4139 35.5379 31.5278 38.5008C11.4516 70.3724 20.5439 93.6974 20.4127 97.1121Z" fill="#DFEEF4"/>
</svg>

<svg width="76" height="99" viewBox="0 0 76 99" fill="none" xmlns="http://www.w3.org/2000/svg"><path d="M20.413 97.112l4.764-3.58c-10.368-27.651 8.089-52.71 8.734-53.506 11.136 8.795 22.337 14.41 26.546 16.119.524-.912 1.637-2.867 1.902-3.398-11.137-3.964-19.048-9.005-24.41-12.438 6.698 1.765 21.477 1.757 28.03 1.532l.395-4.028c-19.739 1.67-23.71.508-28.145.11.159-.12 9.977-2.419 26.867-12.31-.42-1.067-1.292-3.3-1.424-3.698C46.368 33.051 42.166 33.928 37.4 35.85c6.352-5.187 18.21-22.904 19.003-24.33-1.357-1.26-2.598-2.089-3.21-2.354-5.358 11.072-16.142 23.733-17.316 24.927 4.991-16.808 5.533-28.096 5.615-29.505-.926-.133-2.846-.349-3.97-.333.61 7.997-2.354 22.77-3.912 29.157-2.288-13.825-6.097-23.191-7.803-27.817-.53.067-2.725 1.01-3.756 1.475 6.607 14.207 8.662 22.612 9.309 26.79-8.294-11.49-17.182-19.631-18.838-20.875a130.85 130.85 0 00-2.712 2.867c7.706 5.32 16.386 15.116 19.763 19.35-11.999-7.463-23.416-9.454-25.501-9.753a144.63 144.63 0 00-.992 3.646c10.484.414 23.333 6.443 28.447 9.406-20.076 31.871-10.984 55.196-11.115 58.611z" fill="#DFEEF4"/></svg>
